static/img/speech-1.svg

<svg xmlns="http://www.w3.org/2000/svg" width="2504" height="1291" fill="none"  xmlns:v="https://vecta.io/nano"><path d="M1619 2c-5.8.5-24.4 1.3-41.5 2-17 .6-34.1 1.5-38 2-3.8.5-11.9 1-18 1-6 0-16.3.7-23 1.5-6.6.8-19.4 2-28.5 2.6-25.7 1.6-38.8 2.7-47.5 3.8-4.4.6-13.2 1.5-19.5 2.1-23.9 2.1-54.5 5.5-64.5 7-3.3.5-9.6 1.2-14 1.5s-11.8 1.2-16.5 2c-13.7 2.3-31.2 4.5-35.5 4.5-2.2 0-5.6.5-7.5 1-1.9.6-7.5 1.5-12.5 2-4.9.6-13 1.7-18 2.5-14.9 2.6-20.7 3.4-27 4-3.3.3-7.8 1-10 1.5s-10.7 1.8-19 3c-8.2 1.2-16.6 2.5-18.5 3-3.1.8-9.2 1.8-29.5 5-2.7.5-9.7 1.6-15.4 2.4-5.7.9-10.7 1.9-11.3 2.2-.5.3-3.4 1-6.6 1.4-3.1.5-10.6 1.9-16.7 3.1l-19 3.5c-14.7 2.5-23.4 4.2-24.4 4.8-.6.4-3.8 1.1-7.3 1.6-6.8 1-7.7 1.1-21.8 4.1l-16 3.4-28 6c-11.5 2.8-23.7 5.4-30 6.6-3.6.6-8.3 1.7-10.5 2.5-2.2.7-6.2 1.8-9 2.3l-11 2.5-25.5 6.1c-14.7 3.5-20.4 4.9-31.2 8-2.9.8-8.2 2.2-11.8 3l-11.5 3-25.5 7-17.5 4.9-24.5 7.1c-2.5.8-7.2 2.1-10.5 3.1-3.3.9-7.6 2.2-9.5 2.9s-8.2 2.8-14 4.5l-20.5 6.5-16.5 5.3c-8.5 2.7-12.8 4.2-16.5 5.7-3.9 1.6-9.2 3.5-13 4.5-4.1 1.2-11.6 3.8-14 5-1.1.6-4.7 1.8-8 2.9-3.3 1-7.6 2.6-9.5 3.4s-5.5 2.3-8 3.2l-7.7 3.1c-1.7.8-3.6 1.4-4.1 1.4-.6 0-2.3.6-3.9 1.4-1.5.8-4.6 2.1-6.8 2.9-14 5.2-71.1 30.4-76.5 33.8-.8.5-2.6 1.4-4 2-4.8 2-21.5 10.3-25 12.4-1.9 1.2-6 3.5-9 5.2-18.2 9.9-21.1 11.6-33.7 20-5.2 3.5-9.6 6.3-9.9 6.3-.7 0-11.4 7.5-18 12.7l-14.3 11.1c-10.2 7.9-28 25.4-35.4 34.8-5.8 7.5-16.8 22.9-18 25.4-.4.8-1.3 2.4-2 3.5l-7.4 12c-2.1 3.6-14.1 27.9-16.3 33l-3.5 8c-.8 1.6-2.6 6.1-4.1 10-1.4 3.8-2.9 7.4-3.3 7.8-1.1 1.2-32 5.4-44.6 6.1-13 .8-45.5.8-54 0-3.3-.2-8-.6-10.5-.8-5.3-.4-17.8-1.7-20-2.1-4.3-.9-11.6-1.9-12.3-1.7-.4.1-2.8-.3-5.4-.9-2.6-.5-7.8-1.4-11.6-1.9-3.7-.4-10.7-2-15.5-3.3-4.8-1.4-11.8-3.1-15.7-3.8-10-1.7-55.6-17-68.8-23L37 394.2c-3.6-1.4-7.6-3.3-9-4.2-1.4-1-6.3-3.7-11-6s-9.6-5.1-10.9-6.1c-3.7-3-4.5-2.2-2.1 1.8 1.3 2.1 3.4 5.8 4.8 8.3a159.93 159.93 0 0 0 4.2 7l6.6 10c9.4 14.3 13.6 20 23.7 32.9 17.3 21.9 24.3 29.8 47.2 52.6 20.5 20.6 28.2 27.8 39.5 37 2.4 2 5.3 4.5 6.5 5.6 1.1 1 5.2 4.3 9 7.4l10.5 8.3c1.9 1.6 6.6 5 10.3 7.8l11 8.1c2.3 1.8 5.6 4 7.2 4.9 1.7.9 5 3.2 7.4 5.1 2.4 1.8 4.8 3.3 5.4 3.3.5 0 2.4 1.2 4.2 2.7 1.8 1.6 6.8 4.8 11.2 7.2 4.3 2.4 9.9 5.7 12.4 7.3 5.1 3.3 10.5 6.1 32.7 17.1l15.3 7.6-.7 7.8c-.3 4.3-1 9.5-1.5 11.5-2.8 11.2-2.7 128.5.1 150.3.6 4.4 1.5 12.9 2 19 1.6 17.4 6.4 52.9 7.7 57 .3 1 .9 4.4 1.4 7.5 1.4 9.1 3.7 21.3 4.7 24.5.6 1.6 1.7 6.8 2.6 11.5 1 4.7 2.2 9.8 2.8 11.5.5 1.6 1.2 4.1 1.5 5.5s1.3 5.2 2.3 8.5l3.5 12c2.3 8.2 7.4 24.2 9.1 28.7l2.8 7.5c4.4 11.9 5.1 13.8 11.9 29.6 3 6.8 15.8 32.5 19.2 38.2l4.2 7.5c.4.8 2 3.4 3.5 5.6 1.5 2.3 2.8 4.6 2.8 5.1 0 .6.9 1.8 2 2.8s2 2.2 2 2.7.5 1.4 1 2.1c.6.7 3.9 5 7.3 9.7l10.1 13.5c7.3 9.5 25.7 28 33.4 33.7 2.3 1.7 4.2 3.5 4.2 3.9s.8 1 1.8 1.3c.9.3 2.8 1.6 4.2 2.9 2.9 2.6 20.6 14.5 26.5 17.7 2.2 1.2 5.4 3 7 4 5.5 3.5 34.9 18.1 43.5 21.6l11.5 5c1.7.7 3.9 1.4 5 1.3 2.2 0 7.1 1.1 15.5 3.4 14.7 4.1 130.9 34.4 190.5 49.7l38.5 10c4.9 1.5 17.7 3.8 30.3 5.5 5.9.8 11.2 1.7 11.9 2.1.6.4 4.5 1.1 8.7 1.5 8.5.8 21 2.4 31.6 4.1 3.9.5 11.4 1.4 16.8 1.9 5.4.4 13.1 1.2 17 1.8 11.5 1.6 50.3 5.6 64.7 6.7l58 4.5c6.9.5 23.5 1.4 37 1.9l44.8 2.5c11.1.8 32.2 1.5 46.9 1.5 14.6 0 36.5.5 48.7 1.2 26.4 1.3 149.8-.4 195.6-2.8l46.5-2.4c39-1.9 84.3-5.1 100.5-7.1a693.84 693.84 0 0 1 22-1.9c16.8-1.2 33.6-2.8 41.5-4 3.3-.5 9.4-1.2 13.5-1.5s11.6-1.2 16.5-2c5-.8 16.2-2.1 25-3 8.8-.8 18.3-2 21-2.5 2.8-.6 9.8-1.7 15.8-2.5 5.9-.8 11.1-1.6 11.6-1.9s4.4-1 8.7-1.6c21.1-2.6 47.1-6.7 48.4-7.5.5-.3 3.7-1 7.2-1.5 7.9-1.2 19.9-3.4 25.8-4.8 2.5-.6 8.6-1.8 13.5-2.7 5-.9 11.6-2.3 14.7-3.1 3.2-.8 6.8-1.4 8.1-1.4s4.3-.6 6.8-1.4c2.4-.8 8.9-2.4 14.4-3.6 10.2-2.1 11-2.3 25-6l11.5-3c5.2-1.3 18.1-4.9 21.5-6.1 2.8-1 10-3 17-4.9 1.7-.5 4.6-1.4 6.5-2.1 10.1-3.5 14-4.8 19.4-6.4 3.3-1 7.1-2.4 8.5-3.1 1.4-.8 3.4-1.4 4.3-1.4s1.9-.4 2.3-.9c.3-.5 2-1.3 3.8-1.7 3.3-.7 8.2-2.6 12.9-5 1.4-.8 3.1-1.4 3.7-1.4s4.1-1.4 7.8-3.1c3.8-1.6 8.2-3.6 9.8-4.4 9.7-4.3 29.5-14.6 38.6-20 20.1-11.9 48.9-35.8 63.9-53 6.8-7.8 15.5-18.1 17.2-20.6 1-1.3 4.2-5.6 7-9.5l6.8-9.4c.8-1.2 2.6-3.9 4.1-5.9 1.9-2.8 13.2-21.5 19.9-33.1 1.4-2.4 18.1-36.2 19.5-39.5.7-1.7 1.8-4.1 2.3-5.5.6-1.4 2.7-6 4.6-10.2 2-4.2 3.8-8.9 4.2-10.3.3-1.4 1-2.8 1.5-3.1s.9-1.4.9-2.6c0-1.1.6-3.2 1.4-4.6.8-1.5 2.2-5 3.1-7.7 2.1-6.3 5.4-15.1 7.1-19.2.8-1.7 1.4-3.6 1.4-4.3 0-1.6 2.9-10.8 4.6-14.8.8-1.8 1.4-4 1.4-5 0-.9.7-3 1.5-4.6.8-1.5 1.5-3.5 1.5-4.3 0-.9.6-3.6 1.4-6.2 3.4-11 9.2-33.7 11.2-43.4.7-3.7 1.6-7.2 1.9-7.8.4-.5 1.1-3.4 1.5-6.2.9-5 2.5-13.4 4.8-24.2.6-2.8 1.8-9.5 2.7-15s2-12 2.6-14.5c1.2-5.9 3.9-25.5 4.9-35 .4-4.1 1.2-10.2 1.9-13.5 1.5-8.1 2.5-19.9 6.5-77.4 2.1-30 2.1-98.4 0-129.1-3.6-52.5-5-69.6-6.5-76.5-.6-2.8-1.4-8.8-1.9-13.5-.9-8.8-3.2-24.8-4.9-33.5l-2.6-15a418.63 418.63 0 0 0-3-16c-.8-3.3-2.1-9.6-3-14s-2.3-10.5-3.1-13.5-1.9-7.5-2.4-10c-1.9-9.6-6.7-26.4-15-53-6-19.1-7.5-23.2-11.2-31.7-1-2.3-1.8-4.6-1.8-5.1s-.7-2.3-1.5-3.8c-.8-1.6-1.5-3.6-1.5-4.4s-.7-2.4-1.5-3.4c-.8-1.1-1.5-2.6-1.5-3.3s-2.3-6.1-5.1-12l-10.7-23.3a199.91 199.91 0 0 0-4.6-8.5l-5.7-10c-6.3-11.7-8.9-15.8-18.2-29.4-5.6-8.2-13.3-18.9-17.2-23.7-8.6-11-30.6-33.2-40-40.5-3.8-2.9-7.9-6.2-9-7.2-2.1-1.9-11.9-8.7-14.5-10-.8-.4-4.2-2.3-7.5-4.2-9.8-5.8-32.6-15.7-43.5-19-3-.9-6.6-2.1-8-2.7s-4.1-1.4-6-1.9c-1.9-.4-6.6-1.7-10.5-2.9-3.8-1.2-9.9-2.7-13.5-3.5-3.6-.7-9.6-2-13.5-2.9-9.9-2.4-20.4-4.4-32-6.1-5.5-.8-10.7-1.8-11.5-2.1s-4.2-.8-7.5-1c-3.3-.3-7.6-1-9.5-1.5s-5.5-.9-8-.9-9.2-.7-15-1.6c-5.8-.8-16.1-1.9-23-2.4l-26.5-1.9-34.5-2.3c-23.8-1.3-145.5-1.9-161-.8zm-34.7 3.7c-1.8.2-4.8.2-6.5 0-1.8-.2-.4-.4 3.2-.4s5 .2 3.3.4zm215 0c-1.3.2-3.5.2-5 0-1.6-.2-.5-.4 2.2-.4 2.8 0 4 .2 2.8.4zm-498.5 25c-1 .2-2.6.2-3.5 0-1-.3-.2-.5 1.7-.5s2.7.2 1.8.5zm-44.5 6c-.7.2-1.9.2-2.5 0-.7-.3-.2-.5 1.2-.5s1.9.2 1.3.5zm-124.6 18.9c-.3.3-1.2.4-1.9.1-.8-.3-.5-.6.6-.6 1.1-.1 1.7.2 1.3.5zm-113 22c-.3.3-1.2.4-1.9.1-.8-.3-.5-.6.6-.6 1.1-.1 1.7.2 1.3.5zm1208 353.6c-.3.8-.6.5-.6-.6-.1-1.1.2-1.7.5-1.3.3.3.4 1.2.1 1.9zm-1952 193c-.3.7-.5.2-.5-1.2s.2-1.9.5-1.3c.2.7.2 1.9 0 2.5zm-4 60.5c-.3 1-.5.2-.5-1.7s.2-2.7.5-1.8c.2 1 .2 2.6 0 3.5zm0 59c-.3 1-.5.2-.5-1.7s.2-2.7.5-1.8c.2 1 .2 2.6 0 3.5zm1956-1.5c-.3.8-.6.5-.6-.6-.1-1.1.2-1.7.5-1.3.3.3.4 1.2.1 1.9zm-1937 160c-.3.7-.5.2-.5-1.2s.2-1.9.5-1.3c.2.7.2 1.9 0 2.5zm1441 346.4c-.3.3-1.2.4-1.9.1-.8-.3-.5-.6.6-.6 1.1-.1 1.7.2 1.3.5zm-897.9 16.1c-1 .2-2.6.2-3.5 0-1-.3-.2-.5 1.7-.5s2.7.2 1.8.5zm789.9-.1c-.3.3-1.2.4-1.9.1-.8-.3-.5-.6.6-.6 1.1-.1 1.7.2 1.3.5zm-704.9 9.1c-1 .2-2.6.2-3.5 0-1-.3-.2-.5 1.7-.5s2.7.2 1.8.5zm616.5 0c-.7.2-2.1.2-3 0-1-.3-.4-.5 1.2-.5 1.7 0 2.4.2 1.8.5zm-544 6c-.7.2-2.1.2-3 0-1-.3-.4-.5 1.2-.5 1.7 0 2.4.2 1.8.5zm471 0c-1.3.2-3.5.2-5 0-1.6-.2-.5-.4 2.2-.4 2.8 0 4 .2 2.8.4z" fill="#6562ff"/></svg>

<svg width="2504" height="1291" viewBox="0 0 2504 1291" fill="none" xmlns="http://www.w3.org/2000/svg">
<path d="M1619 1.99998C1613.2 2.49998 1594.6 3.29998 1577.5 3.99998C1560.5 4.59998 1543.4 5.49998 1539.5 5.99998C1535.7 6.49998 1527.6 6.99998 1521.5 6.99998C1515.5 6.99998 1505.2 7.69998 1498.5 8.49998C1491.9 9.29998 1479.1 10.5 1470 11.1C1444.3 12.7 1431.2 13.8 1422.5 14.9C1418.1 15.5 1409.3 16.4 1403 17C1379.1 19.1 1348.5 22.5 1338.5 24C1335.2 24.5 1328.9 25.2 1324.5 25.5C1320.1 25.8 1312.7 26.7 1308 27.5C1294.3 29.8 1276.8 32 1272.5 32C1270.3 32 1266.9 32.5 1265 33C1263.1 33.6 1257.5 34.5 1252.5 35C1247.6 35.6 1239.5 36.7 1234.5 37.5C1219.6 40.1 1213.8 40.9 1207.5 41.5C1204.2 41.8 1199.7 42.5 1197.5 43C1195.3 43.5 1186.8 44.8 1178.5 46C1170.3 47.2 1161.9 48.5 1160 49C1156.9 49.8 1150.8 50.8 1130.5 54C1127.8 54.5 1120.8 55.6 1115.1 56.4C1109.4 57.3 1104.4 58.3 1103.8 58.6C1103.3 58.9 1100.4 59.6 1097.2 60C1094.1 60.5 1086.6 61.9 1080.5 63.1C1074.5 64.2 1065.9 65.8 1061.5 66.6C1046.8 69.1 1038.1 70.8 1037.1 71.4C1036.5 71.8 1033.3 72.5 1029.8 73C1023 74 1022.1 74.1 1008 77.1C1002.8 78.2 995.6 79.7 992 80.5C974.6 84.1 969.1 85.3 964 86.5C952.5 89.3 940.3 91.9 934 93.1C930.4 93.7 925.7 94.8 923.5 95.6C921.3 96.3 917.3 97.4 914.5 97.9C911.8 98.5 906.8 99.6 903.5 100.4C897.7 101.8 889.5 103.8 878 106.5C863.3 110 857.6 111.4 846.8 114.5C843.9 115.3 838.6 116.7 835 117.5C831.4 118.4 826.3 119.7 823.5 120.5C817.5 122.2 809.5 124.4 798 127.5C793.3 128.8 785.5 131 780.5 132.4C775.6 133.8 769 135.7 766 136.6C763 137.5 758.5 138.8 756 139.5C753.5 140.3 748.8 141.6 745.5 142.6C742.2 143.5 737.9 144.8 736 145.5C734.1 146.2 727.8 148.3 722 150C716.2 151.8 707 154.7 701.5 156.5C696 158.3 688.6 160.7 685 161.8C676.5 164.5 672.2 166 668.5 167.5C664.6 169.1 659.3 171 655.5 172C651.4 173.2 643.9 175.8 641.5 177C640.4 177.6 636.8 178.8 633.5 179.9C630.2 180.9 625.9 182.5 624 183.3C622.1 184.1 618.5 185.6 616 186.5C613.5 187.5 610.1 188.9 608.3 189.6C606.6 190.4 604.7 191 604.2 191C603.6 191 601.9 191.6 600.3 192.4C598.8 193.2 595.7 194.5 593.5 195.3C579.5 200.5 522.4 225.7 517 229.1C516.2 229.6 514.4 230.5 513 231.1C508.2 233.1 491.5 241.4 488 243.5C486.1 244.7 482 247 479 248.7C460.8 258.6 457.9 260.3 445.3 268.7C440.1 272.2 435.7 275 435.4 275C434.7 275 424 282.5 417.4 287.7C414 290.3 407.6 295.3 403.1 298.8C392.9 306.7 375.1 324.2 367.7 333.6C361.9 341.1 350.9 356.5 349.7 359C349.3 359.8 348.4 361.4 347.7 362.5C343.8 368.9 341.4 372.8 340.3 374.5C338.2 378.1 326.2 402.4 324 407.5C322.8 410.2 321.3 413.8 320.5 415.5C319.7 417.1 317.9 421.6 316.4 425.5C315 429.3 313.5 432.9 313.1 433.3C312 434.5 281.1 438.7 268.5 439.4C255.5 440.2 223 440.2 214.5 439.4C211.2 439.2 206.5 438.8 204 438.6C198.7 438.2 186.2 436.9 184 436.5C179.7 435.6 172.4 434.6 171.7 434.8C171.3 434.9 168.9 434.5 166.3 433.9C163.7 433.4 158.5 432.5 154.7 432C151 431.6 144 430 139.2 428.7C134.4 427.3 127.4 425.6 123.5 424.9C113.5 423.2 67.9 407.9 54.7 401.9C48.5 399.1 40.6 395.7 37 394.2C33.4 392.8 29.4 390.9 28 390C26.6 389 21.7 386.3 17 384C12.3 381.7 7.40004 378.9 6.10004 377.9C2.40004 374.9 1.60004 375.7 4.00004 379.7C5.30004 381.8 7.40004 385.5 8.80004 388C10.2 390.5 12.1 393.6 13 395C13.9 396.4 16.9 400.9 19.6 405C29 419.3 33.2 425 43.3 437.9C60.6 459.8 67.6 467.7 90.5 490.5C111 511.1 118.7 518.3 130 527.5C132.4 529.5 135.3 532 136.5 533.1C137.6 534.1 141.7 537.4 145.5 540.5C149.4 543.6 154.1 547.3 156 548.8C157.9 550.4 162.6 553.8 166.3 556.6C170 559.3 175 563 177.3 564.7C179.6 566.5 182.9 568.7 184.5 569.6C186.2 570.5 189.5 572.8 191.9 574.7C194.3 576.5 196.7 578 197.3 578C197.8 578 199.7 579.2 201.5 580.7C203.3 582.3 208.3 585.5 212.7 587.9C217 590.3 222.6 593.6 225.1 595.2C230.2 598.5 235.6 601.3 257.8 612.3L273.1 619.9L272.4 627.7C272.1 632 271.4 637.2 270.9 639.2C268.1 650.4 268.2 767.7 271 789.5C271.6 793.9 272.5 802.4 273 808.5C274.6 825.9 279.4 861.4 280.7 865.5C281 866.5 281.6 869.9 282.1 873C283.5 882.1 285.8 894.3 286.8 897.5C287.4 899.1 288.5 904.3 289.4 909C290.4 913.7 291.6 918.8 292.2 920.5C292.7 922.1 293.4 924.6 293.7 926C294 927.4 295 931.2 296 934.5C297 937.8 298.6 943.2 299.5 946.5C301.8 954.7 306.9 970.7 308.6 975.2C309.4 977.3 310.6 980.7 311.4 982.7C315.8 994.6 316.5 996.5 323.3 1012.3C326.3 1019.1 339.1 1044.8 342.5 1050.5C344.4 1053.8 346.3 1057.2 346.7 1058C347.1 1058.8 348.7 1061.4 350.2 1063.6C351.7 1065.9 353 1068.2 353 1068.7C353 1069.3 353.9 1070.5 355 1071.5C356.1 1072.5 357 1073.7 357 1074.2C357 1074.7 357.5 1075.6 358 1076.3C358.6 1077 361.9 1081.3 365.3 1086C368.8 1090.7 373.3 1096.7 375.4 1099.5C382.7 1109 401.1 1127.5 408.8 1133.2C411.1 1134.9 413 1136.7 413 1137.1C413 1137.5 413.8 1138.1 414.8 1138.4C415.7 1138.7 417.6 1140 419 1141.3C421.9 1143.9 439.6 1155.8 445.5 1159C447.7 1160.2 450.9 1162 452.5 1163C458 1166.5 487.4 1181.1 496 1184.6C500.7 1186.6 505.9 1188.8 507.5 1189.6C509.2 1190.3 511.4 1191 512.5 1190.9C514.7 1190.9 519.6 1192 528 1194.3C542.7 1198.4 658.9 1228.7 718.5 1244C737.8 1248.9 755.1 1253.4 757 1254C761.9 1255.5 774.7 1257.8 787.3 1259.5C793.2 1260.3 798.5 1261.2 799.2 1261.6C799.8 1262 803.7 1262.7 807.9 1263.1C816.4 1263.9 828.9 1265.5 839.5 1267.2C843.4 1267.7 850.9 1268.6 856.3 1269.1C861.7 1269.5 869.4 1270.3 873.3 1270.9C884.8 1272.5 923.6 1276.5 938 1277.6C958 1279.1 985.4 1281.2 996 1282.1C1002.9 1282.6 1019.5 1283.5 1033 1284C1046.5 1284.6 1066.6 1285.7 1077.8 1286.5C1088.9 1287.3 1110 1288 1124.7 1288C1139.3 1288 1161.2 1288.5 1173.4 1289.2C1199.8 1290.5 1323.2 1288.8 1369 1286.4C1384.7 1285.6 1405.6 1284.5 1415.5 1284C1454.5 1282.1 1499.8 1278.9 1516 1276.9C1520.7 1276.4 1530.6 1275.5 1538 1275C1554.8 1273.8 1571.6 1272.2 1579.5 1271C1582.8 1270.5 1588.9 1269.8 1593 1269.5C1597.1 1269.2 1604.6 1268.3 1609.5 1267.5C1614.5 1266.7 1625.7 1265.4 1634.5 1264.5C1643.3 1263.7 1652.8 1262.5 1655.5 1262C1658.3 1261.4 1665.3 1260.3 1671.3 1259.5C1677.2 1258.7 1682.4 1257.9 1682.9 1257.6C1683.4 1257.3 1687.3 1256.6 1691.6 1256C1712.7 1253.4 1738.7 1249.3 1740 1248.5C1740.5 1248.2 1743.7 1247.5 1747.2 1247C1755.1 1245.8 1767.1 1243.6 1773 1242.2C1775.5 1241.6 1781.6 1240.4 1786.5 1239.5C1791.5 1238.6 1798.1 1237.2 1801.2 1236.4C1804.4 1235.6 1808 1235 1809.3 1235C1810.6 1235 1813.6 1234.4 1816.1 1233.6C1818.5 1232.8 1825 1231.2 1830.5 1230C1840.7 1227.9 1841.5 1227.7 1855.5 1224C1859.9 1222.8 1865.1 1221.5 1867 1221C1872.2 1219.7 1885.1 1216.1 1888.5 1214.9C1891.3 1213.9 1898.5 1211.9 1905.5 1210C1907.2 1209.5 1910.1 1208.6 1912 1207.9C1922.1 1204.4 1926 1203.1 1931.4 1201.5C1934.7 1200.5 1938.5 1199.1 1939.9 1198.4C1941.3 1197.6 1943.3 1197 1944.2 1197C1945.1 1197 1946.1 1196.6 1946.5 1196.1C1946.8 1195.6 1948.5 1194.8 1950.3 1194.4C1953.6 1193.7 1958.5 1191.8 1963.2 1189.4C1964.6 1188.6 1966.3 1188 1966.9 1188C1967.5 1188 1971 1186.6 1974.7 1184.9C1978.5 1183.3 1982.9 1181.3 1984.5 1180.5C1994.2 1176.2 2014 1165.9 2023.1 1160.5C2043.2 1148.6 2072 1124.7 2087 1107.5C2093.8 1099.7 2102.5 1089.4 2104.2 1086.9C2105.2 1085.6 2108.4 1081.3 2111.2 1077.4C2114.1 1073.4 2117.2 1069.2 2118 1068C2118.8 1066.8 2120.6 1064.1 2122.1 1062.1C2124 1059.3 2135.3 1040.6 2142 1029C2143.4 1026.6 2160.1 992.8 2161.5 989.5C2162.2 987.8 2163.3 985.4 2163.8 984C2164.4 982.6 2166.5 978 2168.4 973.8C2170.4 969.6 2172.2 964.9 2172.6 963.5C2172.9 962.1 2173.6 960.7 2174.1 960.4C2174.6 960.1 2175 959 2175 957.8C2175 956.7 2175.6 954.6 2176.4 953.2C2177.2 951.7 2178.6 948.2 2179.5 945.5C2181.6 939.2 2184.9 930.4 2186.6 926.3C2187.4 924.6 2188 922.7 2188 922C2188 920.4 2190.9 911.2 2192.6 907.2C2193.4 905.4 2194 903.2 2194 902.2C2194 901.3 2194.7 899.2 2195.5 897.6C2196.3 896.1 2197 894.1 2197 893.3C2197 892.4 2197.6 889.7 2198.4 887.1C2201.8 876.1 2207.6 853.4 2209.6 843.7C2210.3 840 2211.2 836.5 2211.5 835.9C2211.9 835.4 2212.6 832.5 2213 829.7C2213.9 824.7 2215.5 816.3 2217.8 805.5C2218.4 802.7 2219.6 796 2220.5 790.5C2221.4 785 2222.5 778.5 2223.1 776C2224.3 770.1 2227 750.5 2228 741C2228.4 736.9 2229.2 730.8 2229.9 727.5C2231.4 719.4 2232.4 707.6 2236.4 650.1C2238.5 620.1 2238.5 551.7 2236.4 521C2232.8 468.5 2231.4 451.4 2229.9 444.5C2229.3 441.7 2228.5 435.7 2228 431C2227.1 422.2 2224.8 406.2 2223.1 397.5C2222.6 394.7 2221.4 388 2220.5 382.5C2219.6 377 2218.2 369.8 2217.5 366.5C2216.7 363.2 2215.4 356.9 2214.5 352.5C2213.6 348.1 2212.2 342 2211.4 339C2210.6 336 2209.5 331.5 2209 329C2207.1 319.4 2202.3 302.6 2194 276C2188 256.9 2186.5 252.8 2182.8 244.3C2181.8 242 2181 239.7 2181 239.2C2181 238.7 2180.3 236.9 2179.5 235.4C2178.7 233.8 2178 231.8 2178 231C2178 230.2 2177.3 228.6 2176.5 227.6C2175.7 226.5 2175 225 2175 224.3C2175 223.6 2172.7 218.2 2169.9 212.3C2165.2 202.2 2161.8 194.8 2159.2 189C2158.5 187.6 2156.5 183.8 2154.6 180.5C2152.7 177.2 2150.1 172.7 2148.9 170.5C2142.6 158.8 2140 154.7 2130.7 141.1C2125.1 132.9 2117.4 122.2 2113.5 117.4C2104.9 106.4 2082.9 84.2 2073.5 76.9C2069.7 74 2065.6 70.7 2064.5 69.7C2062.4 67.8 2052.6 61 2050 59.7C2049.2 59.3 2045.8 57.4 2042.5 55.5C2032.7 49.7 2009.9 39.8 1999 36.5C1996 35.6 1992.4 34.4 1991 33.8C1989.6 33.2 1986.9 32.4 1985 31.9C1983.1 31.5 1978.4 30.2 1974.5 29C1970.7 27.8 1964.6 26.3 1961 25.5C1957.4 24.8 1951.4 23.5 1947.5 22.6C1937.6 20.2 1927.1 18.2 1915.5 16.5C1910 15.7 1904.8 14.7 1904 14.4C1903.2 14.1 1899.8 13.6 1896.5 13.4C1893.2 13.1 1888.9 12.4 1887 11.9C1885.1 11.4 1881.5 11 1879 11C1876.5 11 1869.8 10.3 1864 9.39998C1858.2 8.59998 1847.9 7.49998 1841 6.99998C1834.1 6.59998 1822.2 5.69998 1814.5 5.09998C1806.8 4.49998 1791.3 3.49998 1780 2.79998C1756.2 1.49998 1634.5 0.899981 1619 1.99998ZM1584.3 5.69998C1582.5 5.89998 1579.5 5.89998 1577.8 5.69998C1576 5.49998 1577.4 5.29998 1581 5.29998C1584.6 5.29998 1586 5.49998 1584.3 5.69998ZM1799.3 5.69998C1798 5.89998 1795.8 5.89998 1794.3 5.69998C1792.7 5.49998 1793.8 5.29998 1796.5 5.29998C1799.3 5.29998 1800.5 5.49998 1799.3 5.69998ZM1300.8 30.7C1299.8 30.9 1298.2 30.9 1297.3 30.7C1296.3 30.4 1297.1 30.2 1299 30.2C1300.9 30.2 1301.7 30.4 1300.8 30.7ZM1256.3 36.7C1255.6 36.9 1254.4 36.9 1253.8 36.7C1253.1 36.4 1253.6 36.2 1255 36.2C1256.4 36.2 1256.9 36.4 1256.3 36.7ZM1131.7 55.6C1131.4 55.9 1130.5 56 1129.8 55.7C1129 55.4 1129.3 55.1 1130.4 55.1C1131.5 55 1132.1 55.3 1131.7 55.6ZM1018.7 77.6C1018.4 77.9 1017.5 78 1016.8 77.7C1016 77.4 1016.3 77.1 1017.4 77.1C1018.5 77 1019.1 77.3 1018.7 77.6ZM2226.7 431.2C2226.4 432 2226.1 431.7 2226.1 430.6C2226 429.5 2226.3 428.9 2226.6 429.3C2226.9 429.6 2227 430.5 2226.7 431.2ZM274.7 624.2C274.4 624.9 274.2 624.4 274.2 623C274.2 621.6 274.4 621.1 274.7 621.7C274.9 622.4 274.9 623.6 274.7 624.2ZM270.7 684.7C270.4 685.7 270.2 684.9 270.2 683C270.2 681.1 270.4 680.3 270.7 681.2C270.9 682.2 270.9 683.8 270.7 684.7ZM270.7 743.7C270.4 744.7 270.2 743.9 270.2 742C270.2 740.1 270.4 739.3 270.7 740.2C270.9 741.2 270.9 742.8 270.7 743.7ZM2226.7 742.2C2226.4 743 2226.1 742.7 2226.1 741.6C2226 740.5 2226.3 739.9 2226.6 740.3C2226.9 740.6 2227 741.5 2226.7 742.2ZM289.7 902.2C289.4 902.9 289.2 902.4 289.2 901C289.2 899.6 289.4 899.1 289.7 899.7C289.9 900.4 289.9 901.6 289.7 902.2ZM1730.7 1248.6C1730.4 1248.9 1729.5 1249 1728.8 1248.7C1728 1248.4 1728.3 1248.1 1729.4 1248.1C1730.5 1248 1731.1 1248.3 1730.7 1248.6ZM832.8 1264.7C831.8 1264.9 830.2 1264.9 829.3 1264.7C828.3 1264.4 829.1 1264.2 831 1264.2C832.9 1264.2 833.7 1264.4 832.8 1264.7ZM1622.7 1264.6C1622.4 1264.9 1621.5 1265 1620.8 1264.7C1620 1264.4 1620.3 1264.1 1621.4 1264.1C1622.5 1264 1623.1 1264.3 1622.7 1264.6ZM917.8 1273.7C916.8 1273.9 915.2 1273.9 914.3 1273.7C913.3 1273.4 914.1 1273.2 916 1273.2C917.9 1273.2 918.7 1273.4 917.8 1273.7ZM1534.3 1273.7C1533.6 1273.9 1532.2 1273.9 1531.3 1273.7C1530.3 1273.4 1530.9 1273.2 1532.5 1273.2C1534.2 1273.2 1534.9 1273.4 1534.3 1273.7ZM990.3 1279.7C989.6 1279.9 988.2 1279.9 987.3 1279.7C986.3 1279.4 986.9 1279.2 988.5 1279.2C990.2 1279.2 990.9 1279.4 990.3 1279.7ZM1461.3 1279.7C1460 1279.9 1457.8 1279.9 1456.3 1279.7C1454.7 1279.5 1455.8 1279.3 1458.5 1279.3C1461.3 1279.3 1462.5 1279.5 1461.3 1279.7Z" fill="#6562FF"/>
</svg>
